build/images/g16.svg

<svg width="138" height="138" viewBox="0 0 138 138" fill="none" xmlns="http://www.w3.org/2000/svg">
<circle cx="69" cy="69" r="69" fill="#76BD5E"/>
<path d="M84.2582 42.3958H73.4146C71.4553 42.402 71.5286 45.3223 73.4146 45.3052H84.2582V46.7981H73.4146C71.4662 46.7809 71.538 49.6997 73.4146 49.7075H84.2582V51.2332H73.4146C71.4662 51.2332 71.538 54.1504 73.4146 54.1426H84.2582V55.5965H73.4146C71.5068 55.6105 71.538 58.5309 73.4146 58.5402H84.2582V59.9973H73.4146C71.5068 59.991 71.499 62.9067 73.4146 62.9067H84.2582V64.3606H73.4146C71.5068 64.3668 71.499 67.2856 73.4146 67.2715H84.2582V68.7613H73.4146C71.5068 68.7442 71.499 71.6598 73.4146 71.6707H84.2582V73.1215H73.4146C71.5068 73.12 71.538 76.0419 73.4146 76.0325H84.2582V104.361C84.2644 108.677 90.8211 108.599 90.8399 104.361V38.0683C90.8211 36.0965 89.2019 33.6036 86.5374 33.5958H73.4146C71.4553 33.5974 71.5286 36.5177 73.4146 36.5052L84.2582 36.5411V37.9919H73.4146C71.4584 37.9825 71.5317 40.9013 73.4146 40.9029H84.2582V42.3958ZM72.669 92.6184C72.6627 87.5796 67.4398 82.1602 61.1998 85.6702V66.3979L57.1641 34.6129C57.0799 33.7721 56.367 33.574 55.888 33.5599C55.3935 33.574 54.4029 33.7721 54.2953 34.6129L50.2798 66.3979V85.6702C44.0398 82.1602 38.9854 87.6139 38.9839 92.5794C38.9854 96.9973 42.3862 100.626 46.9882 100.615C51.6246 100.626 54.9598 96.559 54.9598 92.5794V72.5599H56.5198V92.5794C56.5198 97.0348 59.9706 100.333 63.805 100.542C63.7411 102.985 64.5382 106.47 66.039 107.852C67.7986 109.474 69.8937 107.399 69.0342 105.71C68.2042 104.137 67.3899 103.206 68.0514 99.7726C70.8157 98.4934 72.6627 95.8008 72.669 92.6184ZM47.1661 96.5824C46.1142 96.5824 45.1053 96.1645 44.3615 95.4207C43.6177 94.6769 43.1998 93.668 43.1998 92.6161C43.1998 91.5641 43.6177 90.5553 44.3615 89.8115C45.1053 89.0677 46.1142 88.6498 47.1661 88.6498C49.3282 88.6623 51.0895 90.436 51.1051 92.6184C51.1006 93.664 50.685 94.6659 49.948 95.4076C49.2109 96.1494 48.2117 96.5713 47.1661 96.5824ZM60.5368 92.6184C60.5405 91.5718 60.9559 90.5687 61.6933 89.8261C62.4308 89.0834 63.4309 88.6608 64.4774 88.6498C65.5243 88.6592 66.5252 89.0813 67.2627 89.8244C68.0002 90.5675 68.4148 91.5715 68.4164 92.6184C68.4148 93.6649 68.0001 94.6685 67.2624 95.4108C66.5248 96.1531 65.5239 96.5742 64.4774 96.5824C63.4312 96.5729 62.4308 96.1515 61.6932 95.4095C60.9556 94.6675 60.5401 93.6647 60.5368 92.6184Z" fill="white"/>
</svg>

<svg width="138" height="138" fill="none" xmlns="http://www.w3.org/2000/svg"><circle cx="69" cy="69" r="69" fill="#76BD5E"/><path d="M84.258 42.396H73.415c-1.96.006-1.886 2.926 0 2.91h10.843v1.492H73.415c-1.949-.017-1.877 2.902 0 2.91h10.843v1.525H73.415c-1.949 0-1.877 2.917 0 2.91h10.843v1.453H73.415c-1.908.015-1.877 2.935 0 2.944h10.843v1.457H73.415c-1.908-.006-1.916 2.91 0 2.91h10.843v1.454H73.415c-1.908.006-1.916 2.925 0 2.91h10.843v1.49H73.415c-1.908-.017-1.916 2.899 0 2.91h10.843v1.45H73.415c-1.908-.001-1.877 2.92 0 2.912h10.843v28.328c.006 4.316 6.563 4.238 6.582 0V38.068c-.019-1.971-1.638-4.464-4.303-4.472H73.415c-1.96.001-1.886 2.922 0 2.91l10.843.035v1.45H73.415c-1.957-.008-1.883 2.91 0 2.912h10.843v1.493zM72.67 92.618c-.006-5.038-5.23-10.458-11.47-6.948V66.398l-4.035-31.785c-.084-.84-.797-1.039-1.276-1.053-.494.014-1.485.212-1.593 1.053L50.28 66.398V85.67c-6.24-3.51-11.295 1.944-11.296 6.91.001 4.417 3.402 8.046 8.004 8.035 4.637.011 7.972-4.056 7.972-8.036V72.56h1.56v20.02c0 4.456 3.45 7.754 7.285 7.963-.064 2.443.733 5.928 2.234 7.31 1.76 1.622 3.855-.453 2.995-2.142-.83-1.573-1.644-2.504-.983-5.937 2.765-1.28 4.612-3.972 4.618-7.155zm-25.503 3.964a3.966 3.966 0 010-7.932c2.162.012 3.924 1.786 3.94 3.968a3.981 3.981 0 01-3.94 3.964zm13.37-3.964a3.983 3.983 0 013.941-3.968 3.974 3.974 0 013.94 3.968 3.97 3.97 0 01-3.94 3.964 3.977 3.977 0 01-3.94-3.964z" fill="#fff"/></svg>
